icon/fa/house.svg

<svg xmlns="http://www.w3.org/2000/svg" viewBox="0 0 576 512"><!--! Font Awesome Free 6.1.2 by @fontawesome - https://fontawesome.com License - https://fontawesome.com/license/free (Icons: CC BY 4.0, Fonts: SIL OFL 1.1, Code: MIT License) Copyright 2022 Fonticons, Inc.--><path d="M575.8 255.5c0 18-15 32.1-32 32.1h-32l.7 160.1c0 2.8-.2 5.4-.5 8.1V472c0 22.1-17.9 40-40 40h-16c-1.1 0-2.2-.9-3.3-.1-1.4-.8-2.8.1-4.2.1H392c-22.1 0-40-17.9-40-40v-88c0-17.7-14.3-32-32-32h-64c-17.7 0-32 14.3-32 32v88c0 22.1-17.9 40-40 40h-55.9c-1.5 0-3-.1-4.5-.2-1.2.1-2.4.2-3.6.2h-16c-22.09 0-40-17.9-40-40V360c0-.9.03-1.9.09-2.8v-69.6H32.05C14.02 287.6 0 273.5 0 255.5c0-9 3.004-17 10.01-24L266.4 8.016c7-7.014 15-8.016 22-8.016s15 2.004 21.1 7.014L564.8 231.5c8 7 12.1 15 11 24z"/></svg>

<svg xmlns="http://www.w3.org/2000/svg" viewBox="0 0 576 512" height="1em" width="1em">
<!--! Font Awesome Free 6.1.2 by @fontawesome - https://fontawesome.com License - https://fontawesome.com/license/free (Icons: CC BY 4.0, Fonts: SIL OFL 1.1, Code: MIT License) Copyright 2022 Fonticons, Inc.-->
  <path d="M575.8 255.5C575.8 273.5 560.8 287.6 543.8 287.6H511.8L512.5 447.7C512.5 450.5 512.3 453.1 512 455.8V472C512 494.1 494.1 512 472 512H456C454.9 512 453.8 511.1 452.7 511.9C451.3 511.1 449.9 512 448.5 512H392C369.9 512 352 494.1 352 472V384C352 366.3 337.7 352 320 352H256C238.3 352 224 366.3 224 384V472C224 494.1 206.1 512 184 512H128.1C126.6 512 125.1 511.9 123.6 511.8C122.4 511.9 121.2 512 120 512H104C81.91 512 64 494.1 64 472V360C64 359.1 64.03 358.1 64.09 357.2V287.6H32.05C14.02 287.6 0 273.5 0 255.5C0 246.5 3.004 238.5 10.01 231.5L266.4 8.016C273.4 1.002 281.4 0 288.4 0C295.4 0 303.4 2.004 309.5 7.014L564.8 231.5C572.8 238.5 576.9 246.5 575.8 255.5L575.8 255.5z"/>
</svg>
